icons/svg/folder-open.svg

<svg width="24" height="24" viewBox="0 0 24 24" fill="none" xmlns="http://www.w3.org/2000/svg">
<path d="M3.88163 18.0433L7.9235 12.4203C8.67502 11.3748 9.88388 10.755 11.1715 10.755H19.9242M3.88163 18.0433C4.55274 18.8251 5.54819 19.3203 6.65929 19.3203H15.0017C16.3895 19.3203 17.6782 18.6009 18.4066 17.4196L21.3251 12.6861V12.6861C21.8206 11.8278 21.2012 10.755 20.2101 10.755H19.9242M3.88163 18.0433C3.33207 17.4032 3 16.5709 3 15.661V7.42416C3 5.90843 4.22874 4.67969 5.74447 4.67969H8.39749C9.00406 4.67969 9.58578 4.92064 10.0147 5.34955L10.9261 6.26093C11.2693 6.60415 11.7348 6.79692 12.2202 6.79682L16.2642 6.79598C18.2854 6.79556 19.9242 8.434 19.9242 10.4553V10.755" stroke="currentColor" stroke-width="1.5" stroke-linejoin="round"/>
</svg>

<svg xmlns="http://www.w3.org/2000/svg" width="24" height="24" fill="none" viewBox="0 0 24 24"><path stroke="currentColor" stroke-linejoin="round" stroke-width="1.5" d="m3.882 18.043 4.041-5.623a4 4 0 0 1 3.249-1.665h8.752M3.882 18.043a3.65 3.65 0 0 0 2.777 1.277h8.343a4 4 0 0 0 3.405-1.9l2.918-4.734a1.287 1.287 0 0 0-1.115-1.931h-.286M3.882 18.043A3.65 3.65 0 0 1 3 15.661V7.424A2.744 2.744 0 0 1 5.744 4.68h2.653c.607 0 1.189.24 1.618.67l.911.91a1.83 1.83 0 0 0 1.294.537l4.044-.001a3.66 3.66 0 0 1 3.66 3.66v.299"/></svg>
